X: 1
T: Sherry's Return
R: reel
M: 4/4
L: 1/8
K: Emaj
|:e2 BA GBEB|FA=DA GE E2|GBef geag|fedc B4|
=dAdf eBef|gefe dfBA|(3GAB EB FA=DA|B=dAF GE E2:|
|:GBef geag|fBdf eBAF|GBef geag|fedc B3 c|
=dAdf eBef|gefe dfBA|(3GAB EB FA=DA|B=dAF GE E2:|

composer: Richard Dwyer
